packages/kaspersky-hexa-ui-icons/src/iconsSVGs/16/Subnet.svg

<svg width="16" height="16" viewBox="0 0 16 16" fill="none" xmlns="http://www.w3.org/2000/svg">
<path fill-rule="evenodd" clip-rule="evenodd" d="M6.63298 2.20264C5.83217 2.20264 5.18298 2.85182 5.18298 3.65264V4.41597C3.97666 4.45729 3.01141 5.44824 3.01141 6.66463V8.82472H2.29961C1.4988 8.82472 0.849609 9.47391 0.849609 10.2747V12.3472C0.849609 13.1481 1.4988 13.7972 2.29961 13.7972H5.03294C5.83376 13.7972 6.48294 13.1481 6.48294 12.3472V10.2747C6.48294 9.47391 5.83376 8.82472 5.03294 8.82472H4.31141V6.66463C4.31141 6.16637 4.695 5.7577 5.18298 5.71782V5.72516C5.18298 6.52597 5.83217 7.17516 6.63298 7.17516H9.36632C10.1671 7.17516 10.8163 6.52597 10.8163 5.72515V5.71886C11.2986 5.76433 11.676 6.17041 11.676 6.66463V8.82472H10.9662C10.1654 8.82472 9.51624 9.47391 9.51624 10.2747V12.3472C9.51624 13.1481 10.1654 13.7972 10.9662 13.7972H13.6996C14.5004 13.7972 15.1496 13.1481 15.1496 12.3472V10.2747C15.1496 9.47391 14.5004 8.82472 13.6996 8.82472H12.976V6.66463C12.976 5.45222 12.0171 4.46379 10.8163 4.41641V3.65264C10.8163 2.85182 10.1671 2.20264 9.36632 2.20264H6.63298ZM6.48298 3.65264C6.48298 3.56979 6.55014 3.50264 6.63298 3.50264H9.36632C9.44916 3.50264 9.51632 3.56979 9.51632 3.65264V5.72515C9.51632 5.808 9.44916 5.87516 9.36632 5.87516H6.63298C6.55014 5.87516 6.48298 5.808 6.48298 5.72516V3.65264ZM2.14961 10.2747C2.14961 10.1919 2.21677 10.1247 2.29961 10.1247H5.03294C5.11579 10.1247 5.18294 10.1919 5.18294 10.2747V12.3472C5.18294 12.4301 5.11578 12.4972 5.03294 12.4972H2.29961C2.21677 12.4972 2.14961 12.4301 2.14961 12.3472V10.2747ZM10.9662 10.1247C10.8834 10.1247 10.8162 10.1919 10.8162 10.2747V12.3472C10.8162 12.4301 10.8834 12.4972 10.9662 12.4972H13.6996C13.7824 12.4972 13.8496 12.4301 13.8496 12.3472V10.2747C13.8496 10.1919 13.7824 10.1247 13.6996 10.1247H10.9662Z" fill="black"/>
</svg>

<svg xmlns="http://www.w3.org/2000/svg" width="16" height="16" fill="none" viewBox="0 0 16 16"><path fill="#000" fill-rule="evenodd" d="M6.633 2.2026c-.8008 0-1.45.6492-1.45 1.45v.7634c-1.2063.0413-2.1716 1.0322-2.1716 2.2486v2.1601h-.7118c-.8008 0-1.45.6492-1.45 1.45v2.0725c0 .8009.6492 1.45 1.45 1.45H5.033c.8009 0 1.45-.6491 1.45-1.45v-2.0725c0-.8008-.6491-1.45-1.45-1.45h-.7215v-2.16c0-.4983.3836-.907.8716-.9469v.0074c0 .8008.6492 1.45 1.45 1.45h2.7333c.8008 0 1.45-.6492 1.45-1.45v-.0063c.4823.0454.8597.4515.8597.9457v2.1601h-.7098c-.8008 0-1.45.6492-1.45 1.45v2.0725c0 .8009.6492 1.45 1.45 1.45h2.7334c.8008 0 1.45-.6491 1.45-1.45v-2.0725c0-.8008-.6492-1.45-1.45-1.45h-.7236v-2.16c0-1.2125-.9589-2.201-2.1597-2.2483v-.7638c0-.8008-.6492-1.45-1.45-1.45zm-.15 1.45a.15.15 0 0 1 .15-.15h2.7333a.15.15 0 0 1 .15.15v2.0726a.15.15 0 0 1-.15.15H6.633a.15.15 0 0 1-.15-.15zm-4.3334 6.6221a.15.15 0 0 1 .15-.15H5.033a.15.15 0 0 1 .15.15v2.0725a.15.15 0 0 1-.15.15H2.2996a.15.15 0 0 1-.15-.15zm8.8166-.15a.15.15 0 0 0-.15.15v2.0725a.15.15 0 0 0 .15.15h2.7334a.15.15 0 0 0 .15-.15v-2.0725a.15.15 0 0 0-.15-.15z"/></svg>
